X:1
T:Anstice, 88.68.86
T:Anstice, 88.68.86
T:Georg Peter Weimar (1734-1800)
T:Public Domain Courtesy of the Cyber Hymnal™
C:Georg Peter Weimar (1734-1800)
Z:Public Domain
Z:Courtesy of the Cyber Hymnal™
%%score ( 1 2 ) ( 3 4 )
L:1/8
Q:1/4=112
M:none
K:G
V:1 treble 
V:2 treble 
V:3 bass 
V:4 bass 
V:1
 d2 | B2 [FA]2 [EG]2 [DG]2 | (AB) (cd) [GB]2 [Gd]2 | e2 z c2 [GB]2 x | [EA]2 G2 [DF]2 A2 | %5
 B2 (AG) [DF]2 [=CE]2 | D6 [DA]2 | [DB]2 [EB]2 [EA]2 (Bd) | c2 z [CA]2 [DA]2 x | %9
 [DB]2 [DB]2 A2 (Bd) | c2 [GB]2 [FA]2 [Gd]2 | [Ge]2 (dc) B2 [FA]2 | G6 |] %13
V:2
 (B,C) | (DE) x6 | G2 F2 x4 | G3 (d2 =F) (E^F) | x2 (B,^C) x (D=C) x | (B,^C) D2 x4 | D6 x2 | %7
 x6 =F2 | E3 (B2 D) x2 | x4 (ED) D2 | (EF) x6 | x2 G2 (GE) x2 | G6 |] %13
V:3
 (G,A,) | (B,C) [D,D]2 [E,B,]2 [B,,D]2 | [A,,C]2 [D,A,]2 [G,,D]2 [B,,D]2 | %3
 [C,C]2 [G,,B,]2 [A,,C]2 [B,,D]2 | [C,C]2 [E,G,]2 [D,A,]2 [D,F,]2 | G,2 (D,E,) (F,G,) [A,,A,]2 | %6
 [D,F,]6 [D,F,]2 | G,2 ^G,2 [C,A,]2 [D,A,]2 | (A,F,) [E,^G,]2 A,2 [F,A,]2 | %9
 G,2 [B,,G,]2 ([C,G,][D,F,]) (G,B,) | [A,,C]2 D2 [D,D]2 [B,,D]2 | %11
 (DC) ([D,B,][E,C]) [D,D]2 [D,D]2 | [G,B,]6 |] %13
V:4
 G,2 | G,2 x6 | x8 | x8 | x8 | (G,,A,,) B,,2 A,,2 x2 | x8 | (^G,=F,) (E,D,) x4 | E,2 x A,2 x3 | %9
 G,2 x2 B,,2 x2 | x2 (G,,B,,) x4 | C,2 x6 | x6 |] %13

